X:110
T: Verjen meg az Isten rózsám...
M: 4/4
L: 1/4
K: F
gggg | gfed | fgfe | d<dd<d | 
gggg | gfed | ccde | c<c c<c | 
ccff | gfdd | cdcB | cB G<G | 
cdcB | cdfd | dcBc | G<G G<G | 

